svg/color/aquari.svg

<?xml version="1.0" encoding="UTF-8" ?>
<!DOCTYPE svg PUBLIC "-//W3C//DTD SVG 1.1//EN" "http://www.w3.org/Graphics/SVG/1.1/DTD/svg11.dtd">
<svg width="250pt" height="250pt" viewBox="0 0 250 250" version="1.1" xmlns="http://www.w3.org/2000/svg">
<g id="#ffffffff">
<path fill="#ffffff" opacity="1.00" d=" M 0.00 0.00 L 117.61 0.00 C 86.48 2.12 56.14 15.95 34.66 38.66 C 14.26 59.84 2.06 88.34 0.00 117.61 L 0.00 0.00 Z" />
<path fill="#ffffff" opacity="1.00" d=" M 132.41 0.00 L 250.00 0.00 L 250.00 117.59 C 247.90 85.72 233.49 54.69 209.77 33.17 C 188.88 13.55 160.93 1.95 132.41 0.00 Z" />
<path fill="#ffffff" opacity="1.00" d=" M 87.12 37.07 C 93.76 30.35 104.38 28.90 113.18 31.48 C 127.32 36.37 140.04 44.87 150.62 55.39 C 161.30 65.31 169.94 77.27 176.58 90.21 C 188.63 115.10 192.63 143.12 192.62 170.53 C 194.01 171.90 196.05 172.31 197.78 173.14 C 204.10 175.57 209.47 179.95 213.89 185.02 C 207.55 182.03 201.21 178.32 193.97 178.34 C 178.86 177.02 164.15 182.25 150.80 188.84 C 136.81 195.33 123.15 202.87 108.16 206.87 C 100.79 208.94 92.99 209.14 85.41 208.26 C 70.81 205.61 58.46 195.74 49.83 184.04 C 55.50 187.03 60.37 191.54 66.54 193.54 C 68.53 194.53 69.68 191.98 70.89 190.84 C 83.12 174.65 90.50 155.46 97.05 136.43 C 102.30 119.38 107.36 102.23 110.90 84.72 C 115.35 90.78 117.56 98.11 119.50 105.28 C 125.71 132.47 122.16 162.12 108.33 186.49 C 105.79 191.05 102.08 194.76 98.79 198.75 C 103.40 198.68 108.07 198.04 112.36 196.28 C 115.15 195.26 115.61 191.92 116.81 189.57 C 124.08 172.68 127.75 154.34 128.39 136.00 C 127.63 117.97 124.93 99.26 115.44 83.55 C 111.13 76.03 103.33 70.90 94.92 69.12 C 87.38 67.51 79.65 68.64 72.04 68.73 C 67.99 68.85 64.30 65.02 64.50 60.99 C 64.09 57.83 67.05 55.95 68.96 53.96 C 74.86 48.17 81.27 42.93 87.12 37.07 M 95.40 46.40 C 93.52 47.28 92.43 50.28 94.47 51.57 C 96.09 53.62 99.29 52.03 99.50 49.71 C 100.07 47.51 97.39 45.78 95.40 46.40 M 179.73 147.74 C 177.61 157.00 172.53 165.20 167.02 172.80 C 170.14 172.14 173.38 171.68 176.28 170.29 C 178.67 167.64 179.53 164.03 180.72 160.76 C 183.14 154.03 182.89 146.74 182.18 139.73 C 181.32 142.39 180.30 145.00 179.73 147.74 Z" />
<path fill="#ffffff" opacity="1.00" d=" M 0.00 132.40 C 1.45 143.26 2.93 154.21 6.45 164.63 C 12.77 183.59 23.79 200.97 38.14 214.87 C 59.37 235.49 88.11 248.00 117.60 250.00 L 0.00 250.00 L 0.00 132.40 Z" />
<path fill="#ffffff" opacity="1.00" d=" M 221.06 205.06 C 238.11 184.71 248.20 158.86 250.00 132.41 L 250.00 250.00 L 132.39 250.00 C 166.41 247.81 199.36 231.43 221.06 205.06 Z" />
</g>
<g id="#42a5f0ff">
<path fill="#42a5f0" opacity="1.00" d=" M 117.61 0.00 L 132.41 0.00 C 160.93 1.95 188.88 13.55 209.77 33.17 C 233.49 54.69 247.90 85.72 250.00 117.59 L 250.00 132.41 C 248.20 158.86 238.11 184.71 221.06 205.06 C 199.36 231.43 166.41 247.81 132.39 250.00 L 117.60 250.00 C 88.11 248.00 59.37 235.49 38.14 214.87 C 23.79 200.97 12.77 183.59 6.45 164.63 C 2.93 154.21 1.45 143.26 0.00 132.40 L 0.00 117.61 C 2.06 88.34 14.26 59.84 34.66 38.66 C 56.14 15.95 86.48 2.12 117.61 0.00 M 87.12 37.07 C 81.27 42.93 74.86 48.17 68.96 53.96 C 67.05 55.95 64.09 57.83 64.50 60.99 C 64.30 65.02 67.99 68.85 72.04 68.73 C 79.65 68.64 87.38 67.51 94.92 69.12 C 103.33 70.90 111.13 76.03 115.44 83.55 C 124.93 99.26 127.63 117.97 128.39 136.00 C 127.75 154.34 124.08 172.68 116.81 189.57 C 115.61 191.92 115.15 195.26 112.36 196.28 C 108.07 198.04 103.40 198.68 98.79 198.75 C 102.08 194.76 105.79 191.05 108.33 186.49 C 122.16 162.12 125.71 132.47 119.50 105.28 C 117.56 98.11 115.35 90.78 110.90 84.72 C 107.36 102.23 102.30 119.38 97.05 136.43 C 90.50 155.46 83.12 174.65 70.89 190.84 C 69.68 191.98 68.53 194.53 66.54 193.54 C 60.37 191.54 55.50 187.03 49.83 184.04 C 58.46 195.74 70.81 205.61 85.41 208.26 C 92.99 209.14 100.79 208.94 108.16 206.87 C 123.15 202.87 136.81 195.33 150.80 188.84 C 164.15 182.25 178.86 177.02 193.97 178.34 C 201.21 178.32 207.55 182.03 213.89 185.02 C 209.47 179.95 204.10 175.57 197.78 173.14 C 196.05 172.31 194.01 171.90 192.62 170.53 C 192.63 143.12 188.63 115.10 176.58 90.21 C 169.94 77.27 161.30 65.31 150.62 55.39 C 140.04 44.87 127.32 36.37 113.18 31.48 C 104.38 28.90 93.76 30.35 87.12 37.07 Z" />
<path fill="#42a5f0" opacity="1.00" d=" M 95.40 46.40 C 97.39 45.78 100.07 47.51 99.50 49.71 C 99.29 52.03 96.09 53.62 94.47 51.57 C 92.43 50.28 93.52 47.28 95.40 46.40 Z" />
<path fill="#42a5f0" opacity="1.00" d=" M 179.73 147.74 C 180.30 145.00 181.32 142.39 182.18 139.73 C 182.89 146.74 183.14 154.03 180.72 160.76 C 179.53 164.03 178.67 167.64 176.28 170.29 C 173.38 171.68 170.14 172.14 167.02 172.80 C 172.53 165.20 177.61 157.00 179.73 147.74 Z" />
</g>
</svg>

<?xml version="1.0" encoding="utf-8"?>
<!-- Generator: Adobe Illustrator 26.0.3, SVG Export Plug-In . SVG Version: 6.00 Build 0)  -->
<svg version="1.1" id="Layer_1" xmlns="http://www.w3.org/2000/svg" xmlns:xlink="http://www.w3.org/1999/xlink" x="0px" y="0px"
	 viewBox="0 0 250 250" style="enable-background:new 0 0 250 250;" xml:space="preserve">
<style type="text/css">
	.st0{fill:#FFFFFF;}
	.st1{fill:#42A5F0;}
</style>
<g id="_x23_ffffffff">
	<path class="st0" d="M87.1,37.1c6.6-6.7,17.3-8.2,26.1-5.6c14.1,4.9,26.9,13.4,37.4,23.9c10.7,9.9,19.3,21.9,26,34.8
		c12.1,24.9,16.1,52.9,16,80.3c1.4,1.4,3.4,1.8,5.2,2.6c6.3,2.4,11.7,6.8,16.1,11.9c-6.3-3-12.7-6.7-19.9-6.7
		c-15.1-1.3-29.8,3.9-43.2,10.5c-14,6.5-27.7,14-42.6,18c-7.4,2.1-15.2,2.3-22.8,1.4c-14.6-2.6-27-12.5-35.6-24.2
		c5.7,3,10.5,7.5,16.7,9.5c2,1,3.1-1.6,4.3-2.7c12.2-16.2,19.6-35.4,26.2-54.4c5.2-17,10.3-34.2,13.8-51.7
		c4.4,6.1,6.7,13.4,8.6,20.6c6.2,27.2,2.7,56.8-11.2,81.2c-2.5,4.6-6.2,8.3-9.5,12.3c4.6-0.1,9.3-0.7,13.6-2.5
		c2.8-1,3.2-4.4,4.4-6.7c7.3-16.9,10.9-35.2,11.6-53.6c-0.8-18-3.5-36.7-12.9-52.4c-4.3-7.5-12.1-12.7-20.5-14.4
		c-7.5-1.6-15.3-0.5-22.9-0.4C68,68.8,64.3,65,64.5,61c-0.4-3.2,2.6-5,4.5-7C74.9,48.2,81.3,42.9,87.1,37.1 M95.4,46.4
		c-1.9,0.9-3,3.9-0.9,5.2c1.6,2,4.8,0.5,5-1.9C100.1,47.5,97.4,45.8,95.4,46.4 M179.7,147.7c-2.1,9.3-7.2,17.5-12.7,25.1
		c3.1-0.7,6.4-1.1,9.3-2.5c2.4-2.6,3.2-6.3,4.4-9.5c2.4-6.7,2.2-14,1.5-21C181.3,142.4,180.3,145,179.7,147.7z"/>
</g>
<g id="_x23_42a5f0ff">
	<path class="st1" d="M117.6,0h14.8c28.5,2,56.5,13.6,77.4,33.2c23.7,21.5,38.1,52.6,40.2,84.4v14.8c-1.8,26.4-11.9,52.3-28.9,72.6
		c-21.7,26.4-54.6,42.8-88.7,44.9h-14.8c-29.5-2-58.2-14.5-79.5-35.1C23.8,201,12.8,183.6,6.4,164.6c-3.5-10.4-5-21.4-6.4-32.2
		v-14.8c2.1-29.3,14.3-57.8,34.7-78.9C56.1,15.9,86.5,2.1,117.6,0 M87.1,37.1C81.3,42.9,74.9,48.2,69,54c-1.9,2-4.9,3.9-4.5,7
		c-0.2,4,3.5,7.9,7.5,7.7c7.6-0.1,15.3-1.2,22.9,0.4c8.4,1.8,16.2,6.9,20.5,14.4c9.5,15.7,12.2,34.4,12.9,52.4
		c-0.6,18.3-4.3,36.7-11.6,53.6c-1.2,2.3-1.7,5.7-4.4,6.7c-4.3,1.8-9,2.4-13.6,2.5c3.3-4,7-7.7,9.5-12.3
		c13.8-24.4,17.4-54,11.2-81.2c-1.9-7.2-4.2-14.5-8.6-20.6c-3.5,17.5-8.6,34.7-13.8,51.7c-6.6,19-13.9,38.2-26.2,54.4
		c-1.2,1.1-2.4,3.7-4.3,2.7c-6.2-2-11-6.5-16.7-9.5c8.6,11.7,21,21.6,35.6,24.2c7.6,0.9,15.4,0.7,22.8-1.4c15-4,28.6-11.5,42.6-18
		c13.3-6.6,28.1-11.8,43.2-10.5c7.2,0,13.6,3.7,19.9,6.7c-4.4-5.1-9.8-9.4-16.1-11.9c-1.7-0.8-3.8-1.2-5.2-2.6
		c0-27.4-4-55.4-16-80.3c-6.6-12.9-15.3-24.9-26-34.8c-10.6-10.5-23.3-19-37.4-23.9C104.4,28.9,93.8,30.4,87.1,37.1z"/>
	<path class="st1" d="M95.4,46.4c2-0.6,4.7,1.1,4.1,3.3c-0.2,2.3-3.4,3.9-5,1.9C92.4,50.3,93.5,47.3,95.4,46.4z"/>
	<path class="st1" d="M179.7,147.7c0.6-2.7,1.6-5.4,2.4-8c0.7,7,1,14.3-1.5,21c-1.2,3.3-2.1,6.9-4.4,9.5c-2.9,1.4-6.1,1.9-9.3,2.5
		C172.5,165.2,177.6,157,179.7,147.7z"/>
</g>
</svg>
